X:1
T:They Are Coming with Songs
T:They Are Coming with Songs
T:The ransomed of the Lord shall return, and come to Zion with songs and everlasting joy upon their heads: they shall obtain joy and gladness, and sorrow and sighing shall flee away. Isa. 35:10; 51:11
T:WORDS: Mary D. James, pub.1882.  MUSIC: Harlan D. Sorrell, ca.1986.  Public Domain.
T:WORDS: Mary D. James, pub.1882.  MUSIC: Harlan D. Sorrell, ca.1986.  Public Domain.
Z:WORDS: Mary D. James, pub.1882.  MUSIC: Harlan D. Sorrell, ca.1986.  Public Domain.
%%score [ ( 1 2 ) ( 3 4 ) ]
L:1/8
M:4/4
K:E
V:1 treble nm="Treble" snm="Tr."
V:2 treble 
V:3 bass nm="Bass" snm="B."
V:4 bass 
V:1
 ((E[EG])) | [EB] [EB]2 [Ec] [EB]2 [EG][B,F] | [B,E] [B,E]2 [B,E] [=DG]2 (([DG][DF])) | %3
w: 3.~Oh, *|well may they sing, For the|Spir- it doth bring Rich the|
w: 1.~They are|com- ing with songs, The vic-|to- ri- ous throng, Lo! *|
w: 2.~Though *|rough is their path, How un-|wa- v’ring their faith; Though *|
 [CE] [CE]2 [CE] [CF] [CE]2 [A,C] | [B,E]6 | (Bc) | [Ge]2 [Ge][Gc] [Ge]2 [Gc][GB] | %7
w: fore- tastes of bliss as they|go;|And *|ear- nest is giv’n, And the|
w: up to Mount Zi- on they|come;|With *|joy they are crowned, Oh, what|
w: fear- ful the foe in their|way,|Still *|sing- ing they come Up to|
 [EG] [EB]2 [Ec] E2 (B,C) | [B,E]2 [EG][EF] [B,E]2 [DF][DF] | [B,E]6 ||"^Refrain" [GB][GB] | %11
w: glo- ry of Heav’n Makes be-|bright all their path- way be-|low.|They are|
w: bless- ings a- bound In the|way to their glo- ri- ous|home.||
w: Zi- on their home, And they|tri- umph in Christ day by|day.||
 [Ac] [Ac]3 [Ae] [Ae]2 [Ac] | [Ac][GB][GB][EG] [EB]3 [EB] | [DB] [DF]2 [DB] [DB][DF][EG][FA] | %14
w: com- ing, com- ing, The|ran- somed of the Lord, And|Je- sus, His ban- ner o’er them|
w: |||
w: |||
 (([EG]4 [GB]2)) | [GB][GB] | [Ac] [Ac]3 [Ae] [Ae]3 | [Ac][GB](([EG][DF])) [B,E]2 (B,C) | %18
w: spreads; _|They are|com- ing, com- ing,|Com- ing with * songs, And *|
w: ||||
w: ||||
 [B,E][B,E][EG][EF] [B,E][B,E][DF][DF] | [B,E]6 |] %20
w: ev- er- last- ing joy up- on their|heads.|
w: ||
w: ||
V:2
 E x | x8 | x8 | x8 | x6 | G2 | x8 | x4 (ED)C-C | x8 | x6 || x2 | x8 | x8 | x8 | x6 | x2 | x8 | %17
 x4 x2 B,2 | x8 | x6 |] %20
V:3
 (([E,G,][E,B,])) | [E,E] [E,E]2 [E,E] [E,E]2 [E,E][E,B,] | %2
 [E,G,] [E,G,]2 [E,G,] [E,G,]2 (([E,G,][G,,G,])) | %3
 [A,,A,] [A,,A,]2 [A,,A,] [A,,A,] [A,,A,]2 [A,,A,] | [E,G,]6 | [E,B,]2 | %6
 [E,B,]2 [E,B,][E,G,] [E,B,]2 [E,E][E,E] | [E,B,] [E,B,]2 [E,E] [C,B,]2 (([G,,E][A,,E])) | %8
 [B,,B,]2 [E,B,][G,,B,] [B,,B,]2 [B,,B,][B,,B,] | [E,,E,G,]6 || [E,B,][E,B,] | %11
 [A,E] E3 [A,C] [A,C]2 [A,C] | [E,E][E,E][E,E][E,B,] [E,E]3 [E,E] | %13
 [B,,D] [B,,B,]2 [B,,B,] [B,,D][B,,B,][B,,B,][B,,B,] | (B,4 E2) | [E,B,][E,B,] | %16
 [A,E] E3 [A,C] [A,C]3 | [A,E][G,E](([E,C][D,B,])) [B,,G,]2 G,2 | %18
 [B,,B,][B,,B,][E,B,][G,,B,] [B,,B,][B,,B,][B,,B,][B,,B,] | [E,,E,G,]6 |] %20
V:4
 x2 | x8 | x8 | x8 | x6 | x2 | x8 | x8 | x8 | x6 || x2 | x A,C,E, x4 | x8 | x8 | %14
w: |||||||||||* com- ing,|||
 [E,,E,]2 G,,B,, E,2 | x2 | x A,E,C, x4 | x4 x2 (G,,A,,) | x8 | x6 |] %20
w: * o’er them spreads;||* com- ing,||||

